build/dist/assets/images/services/services-3.svg

<svg width="68" height="110" viewBox="0 0 68 110" fill="none" xmlns="http://www.w3.org/2000/svg">
<path fill-rule="evenodd" clip-rule="evenodd" d="M32.3131 89.8114C31.8549 93.0739 34.1285 96.0773 37.4046 96.5374C40.2712 96.9399 43.0147 95.2459 43.9263 92.5386L51.7198 69.211C52.7156 66.1752 52.7858 62.9717 51.9634 59.9074L48.3353 60.8723C48.9536 63.2274 48.913 65.679 48.1331 67.989L40.3396 91.3166C40.0077 92.3285 39.0101 92.9445 37.9305 92.7929C36.7391 92.6256 35.8693 91.5205 36.0411 90.2971L39.1284 68.3123C39.5502 65.3093 37.4367 62.5174 34.4212 62.0939C31.4056 61.6705 28.6049 63.7723 28.1832 66.7753L25.0959 88.7601C24.9293 89.9464 23.8208 90.8115 22.5922 90.639C21.5498 90.4926 20.7232 89.6204 20.6829 88.5562L19.6159 63.9844C19.3649 58.2028 23.0817 53.0918 28.6857 51.5726L54.4694 44.4946L54.6288 44.4414C61.1708 41.9199 65.8264 36.0712 66.7948 29.1755C68.2681 18.6836 60.903 8.95414 50.3673 7.47461L34.0983 5.18996C23.5626 3.71043 13.8026 11.035 12.3292 21.5269C10.8558 32.0188 18.221 41.7482 28.7567 43.2277L29.2773 39.5203C20.7892 38.3283 14.865 30.5025 16.052 22.0497C17.2391 13.5968 25.0896 7.70536 33.5777 8.89735L49.8466 11.182C58.3348 12.374 64.2589 20.1998 63.1091 28.6579C62.3334 34.1819 58.5994 38.8746 53.3796 40.9014L27.6756 47.9527C20.3717 49.9515 15.5272 56.6053 15.8366 64.1341L16.9355 88.7482C17.029 91.5967 19.1998 93.9809 22.0664 94.3834C25.3425 94.8435 28.3554 92.5824 28.8136 89.3199L31.9009 67.3352C32.0362 66.3712 32.9274 65.7025 33.8953 65.8384C34.8633 65.9743 35.5357 66.8627 35.4004 67.8266L32.3131 89.8114ZM1 79.508H5.93405C6.25265 83.7803 7.2569 89.2794 10.5442 94.0581C14.4372 99.7173 21.2947 104.036 32.9592 104.506L32.9613 104.506L32.9616 104.506L33.0033 103.489L33.0066 104.508L33.0479 104.508H33.0481C44.5575 104.46 51.3796 100.33 55.2944 94.6397C58.6269 89.7961 59.6769 84.0626 60.0765 79.508H65V75.508H58.2166H56.3313L56.2201 77.3901C55.9457 82.0361 55.1529 87.7885 51.999 92.3725C48.9535 96.7989 43.4766 100.455 33.0759 100.508C22.4718 100.07 16.8945 96.2319 13.8397 91.7911C10.6946 87.219 9.98183 81.6684 9.82533 77.4341L9.75414 75.508H7.82669H1V79.508Z" fill="#00AEDA"/>
</svg>

<svg width="68" height="110" fill="none" xmlns="http://www.w3.org/2000/svg"><path fill-rule="evenodd" clip-rule="evenodd" d="M32.313 89.811c-.458 3.263 1.816 6.266 5.092 6.726 2.866.403 5.61-1.291 6.521-3.998L51.72 69.21a16.22 16.22 0 00.243-9.304l-3.628.965c.619 2.355.578 4.807-.202 7.117L40.34 91.317c-.332 1.012-1.33 1.628-2.41 1.476a2.218 2.218 0 01-1.889-2.496l3.087-21.985c.422-3.003-1.691-5.795-4.707-6.218-3.015-.424-5.816 1.678-6.238 4.681L25.096 88.76a2.218 2.218 0 01-2.504 1.879c-1.042-.146-1.869-1.019-1.91-2.083l-1.066-24.572c-.251-5.781 3.466-10.892 9.07-12.411l25.783-7.078.16-.054c6.542-2.521 11.197-8.37 12.166-15.266 1.473-10.491-5.892-20.22-16.428-21.7L34.098 5.19C23.563 3.71 13.803 11.035 12.33 21.527c-1.473 10.492 5.892 20.221 16.428 21.7l.52-3.707c-8.488-1.192-14.412-9.018-13.225-17.47 1.187-8.453 9.038-14.345 17.526-13.153l16.269 2.285C58.336 12.374 64.26 20.2 63.11 28.658c-.776 5.524-4.51 10.217-9.73 12.243l-25.703 7.052c-7.304 1.998-12.149 8.652-11.84 16.181l1.1 24.614c.093 2.849 2.264 5.233 5.13 5.635 3.277.46 6.29-1.8 6.748-5.063L31.9 67.335a1.761 1.761 0 011.994-1.497 1.761 1.761 0 011.505 1.989L32.313 89.81zM1 79.508h4.934c.319 4.272 1.323 9.771 4.61 14.55 3.893 5.66 10.75 9.978 22.415 10.448h.002l.042-1.017.004 1.019h.041c11.51-.048 18.332-4.178 22.246-9.868 3.333-4.844 4.383-10.577 4.783-15.132H65v-4h-8.669l-.11 1.882c-.275 4.646-1.068 10.398-4.222 14.983-3.046 4.426-8.522 8.082-18.923 8.135-10.604-.438-16.181-4.276-19.236-8.717-3.145-4.572-3.858-10.123-4.015-14.357l-.07-1.926H1v4z" fill="#00AEDA"/></svg>
